packages/foundations/assets/icons/functional/images/audio & video/volume_off.svg

<svg xmlns="http://www.w3.org/2000/svg" width="32" height="32" fill="none"><path fill="#1A1C1F" fill-rule="evenodd" d="M21.52 6.123c-.088.057-1.444 1.174-3.013 2.482l-2.854 2.379-1.84.003c-1.012.002-2.014.026-2.226.053-1.172.152-2.19 1.06-2.489 2.221-.071.276-.085.717-.085 2.802 0 2.693.012 2.816.308 3.373.228.43.824.993 1.292 1.223.664.325.901.352 3.094.355l1.946.003 2.88 2.402c1.584 1.321 2.94 2.432 3.014 2.47.495.256 1.189-.005 1.383-.519.039-.104.057-3.003.057-9.387 0-8.688-.006-9.247-.094-9.419a1.3 1.3 0 0 0-.296-.345c-.172-.138-.257-.165-.56-.18-.282-.014-.391.003-.517.084M21.013 16c0 3.755-.018 6.826-.04 6.825s-1.04-.837-2.263-1.859c-1.854-1.55-2.263-1.868-2.463-1.919-.16-.04-.956-.06-2.36-.06-2.043 0-2.128-.004-2.351-.112a.86.86 0 0 1-.377-.36l-.146-.248v-4.534l.146-.248a.86.86 0 0 1 .377-.36c.223-.108.307-.112 2.381-.112 1.513 0 2.214-.019 2.363-.063.154-.046.831-.58 2.433-1.918 1.221-1.02 2.238-1.855 2.26-1.856s.04 3.069.04 6.824"/></svg>

<svg width="32" height="32" viewBox="0 0 32 32" fill="none" xmlns="http://www.w3.org/2000/svg"><path d="M21.520 6.123 C 21.432 6.180,20.076 7.297,18.507 8.605 L 15.653 10.984 13.813 10.987 C 12.801 10.989,11.799 11.013,11.587 11.040 C 10.415 11.192,9.397 12.100,9.098 13.261 C 9.027 13.537,9.013 13.978,9.013 16.063 C 9.013 18.756,9.025 18.879,9.321 19.436 C 9.549 19.866,10.145 20.429,10.613 20.659 C 11.277 20.984,11.514 21.011,13.707 21.014 L 15.653 21.017 18.533 23.419 C 20.117 24.740,21.473 25.851,21.547 25.889 C 22.042 26.145,22.736 25.884,22.930 25.370 C 22.969 25.266,22.987 22.367,22.987 15.983 C 22.987 7.295,22.981 6.736,22.893 6.564 C 22.842 6.463,22.709 6.308,22.597 6.219 C 22.425 6.081,22.340 6.054,22.037 6.039 C 21.755 6.025,21.646 6.042,21.520 6.123 M21.013 16.000 C 21.013 19.755,20.995 22.826,20.973 22.825 C 20.951 22.824,19.933 21.988,18.710 20.966 C 16.856 19.416,16.447 19.098,16.247 19.047 C 16.087 19.007,15.291 18.987,13.887 18.987 C 11.844 18.987,11.759 18.983,11.536 18.875 C 11.376 18.797,11.261 18.687,11.159 18.515 L 11.013 18.267 11.013 16.000 L 11.013 13.733 11.159 13.485 C 11.261 13.313,11.376 13.203,11.536 13.125 C 11.759 13.017,11.843 13.013,13.917 13.013 C 15.430 13.013,16.131 12.994,16.280 12.950 C 16.434 12.904,17.111 12.370,18.713 11.032 C 19.934 10.012,20.951 9.177,20.973 9.176 C 20.995 9.174,21.013 12.245,21.013 16.000 " fill="#1A1C1F" stroke="none" fill-rule="evenodd"></path></svg>
